assets/icons/24px/outline/beaker-24px.svg

<svg width="24" height="24" viewBox="0 0 24 24" fill="none" xmlns="http://www.w3.org/2000/svg">
<path d="M8 3V8.66805C8 9.08256 8 9.28981 7.9581 9.49128C7.91619 9.69276 7.83355 9.88282 7.66828 10.263L5.43257 15.4051C4.33456 17.9305 3.78556 19.1932 4.37787 20.0966C4.97017 21 6.34706 21 9.10085 21H14.8992C17.6529 21 19.0298 21 19.6221 20.0966C20.2144 19.1932 19.6654 17.9305 18.5674 15.4051L16.3317 10.263C16.1664 9.88282 16.0838 9.69276 16.0419 9.49128C16 9.28981 16 9.08256 16 8.66805V3" stroke="white" stroke-width="2" stroke-linecap="round" stroke-linejoin="round"/>
<path d="M17 14L7 14" stroke="white" stroke-width="2" stroke-linecap="round" stroke-linejoin="round"/>
<path d="M18 3L6 3" stroke="white" stroke-width="2" stroke-linecap="round" stroke-linejoin="round"/>
</svg>

<svg width="24" height="24" fill="none" xmlns="http://www.w3.org/2000/svg"><path d="M8 3v5.668c0 .415 0 .622-.042.823-.042.202-.124.392-.29.772l-2.235 5.142c-1.098 2.525-1.647 3.788-1.055 4.692C4.97 21 6.348 21 9.1 21h5.798c2.754 0 4.13 0 4.723-.903.592-.904.043-2.167-1.055-4.692l-2.235-5.142c-.166-.38-.248-.57-.29-.772C16 9.29 16 9.083 16 8.668V3m1 11H7M18 3H6" stroke="#fff" stroke-width="2" stroke-linecap="round" stroke-linejoin="round"/></svg>
